icons/markdown-16.svg

<svg xmlns="http://www.w3.org/2000/svg" width="16" height="16" viewBox="0 0 16 16"><path d="M14.85 3c.63 0 1.15.52 1.14 1.15v7.7c0 .63-.51 1.15-1.15 1.15H1.15C.52 13 0 12.48 0 11.84V4.15C0 3.52.52 3 1.15 3zM9 11V5H7L5.5 7 4 5H2v6h2V8l1.5 1.92L7 8v3zm2.99.5L14.5 8H13V5h-2v3H9.5z"/></svg>

<svg xmlns="http://www.w3.org/2000/svg" width="16" height="16" viewBox="0 0 16 16">
  <defs/>
  <path d="M14.85,3 C15.48,3 16,3.52 15.99,4.15 L15.99,11.85 C15.99,12.48 15.48,13 14.84,13 L1.15,13 C0.52,13 0,12.48 0,11.84 L0,4.15 C0,3.52 0.52,3 1.15,3 Z M9,11 L9,5 L7,5 L5.5,7 L4,5 L2,5 L2,11 L4,11 L4,8 L5.5,9.92 L7,8 L7,11 Z M11.99,11.5 L14.5,8 L13,8 L13,5 L11,5 L11,8 L9.5,8 Z"/>
</svg>
